Obsidian/actions/22s/action-unavailable.svg

<svg height="22" viewBox="0 0 22 22" width="22" xmlns="http://www.w3.org/2000/svg"><path d="m8 1c-3.863 0-7 3.137-7 7s3.137 7 7 7 7-3.137 7-7-3.137-7-7-7zm0 2c1.0194 0 1.959.28763 2.75.8125l-6.9375 6.9375c-.52487-.79102-.8125-1.7306-.8125-2.75 0-2.7593 2.2408-5 5-5zm4.1875 2.25c.52487.79102.8125 1.7306.8125 2.75 0 2.7592-2.2408 5-5 5-1.0194 0-1.959-.28763-2.75-.8125z" fill="#bebebe" transform="translate(3 3)"/></svg>

<svg xmlns="http://www.w3.org/2000/svg" width="22" height="22" viewBox="0 0 22 22">
 <defs>
  <style id="current-color-scheme" type="text/css">
   .ColorScheme-Text { color:#bebebe; } .ColorScheme-Highlight { color:#4285f4; }
  </style>
 </defs>
 <path style="fill:currentColor" class="ColorScheme-Text" d="M 8 1 C 4.137 1 1 4.137 1 8 C 1 11.863 4.137 15 8 15 C 11.863 15 15 11.863 15 8 C 15 4.137 11.863 1 8 1 z M 8 3 C 9.0194 3 9.959 3.28763 10.75 3.8125 L 3.8125 10.75 C 3.28763 9.95898 3 9.0194 3 8 C 3 5.2407 5.2408 3 8 3 z M 12.1875 5.25 C 12.71237 6.04102 13 6.9806 13 8 C 13 10.7592 10.7592 13 8 13 C 6.9806 13 6.041 12.71237 5.25 12.1875 L 12.1875 5.25 z" transform="translate(3 3)"/>
</svg>
